X: 2
T: Aggie Whyte's
M: 6/8
L: 1/8
R: jig
K: D Major
|: A |\ 
DFA dcd | edc dAF | DFA dAF | Ac/B/A GFE |
D2 A dB/c/d | edc dAf | afd gec | dAf d2 :|
|: f/g/ |\ 
afd gec | dcd AFD | fdB gec | dcB A2 f/g/ |
a^ga ba=g | fd/e/f ecA | dcd AFD | GG/F/E D2 :|
